img/svg/quotes.svg

<svg fill="none" height="35" viewBox="0 0 45 35" width="45" xmlns="http://www.w3.org/2000/svg"><path d="m25.3276 29.8851c4.2977-2.5288 8.8246-8.046 9.6269-12.5862-.2866.1149-1.318.2873-2.2921.2873-4.4123 0-7.9078-3.5057-7.9078-8.44827 0-4.94253 4.0112-9.13793 9.1111-9.13793 5.5011 0 10.3145 4.42529 10.3145 12.1839 0 9.2529-5.1 17.5862-12.4347 22.8161zm-24.754697 0c4.297697-2.5288 8.824597-8.046 9.626797-12.5862-.28648.1149-1.31792.2873-2.29207.2873-4.4123 0-7.90775207-3.5057-7.90775207-8.44827 0-4.94253 4.01118207-9.13793 9.11111207-9.13793 5.50101 0 10.31451 4.42529 10.31451 12.1839 0 9.2529-5.1 17.5862-12.43471 22.8161z" fill="#fff5bb"/></svg>

<svg width="45" height="35" viewBox="0 0 45 35" fill="none" xmlns="http://www.w3.org/2000/svg">
<path d="M25.3276 29.8851C29.6253 27.3563 34.1522 21.8391 34.9545 17.2989C34.6679 17.4138 33.6365 17.5862 32.6624 17.5862C28.2501 17.5862 24.7546 14.0805 24.7546 9.13793C24.7546 4.1954 28.7658 0 33.8657 0C39.3668 0 44.1802 4.42529 44.1802 12.1839C44.1802 21.4368 39.0802 29.7701 31.7455 35L25.3276 29.8851ZM0.572903 29.8851C4.8706 27.3563 9.3975 21.8391 10.1997 17.2989C9.91322 17.4138 8.88178 17.5862 7.90763 17.5862C3.49533 17.5862 -0.00012207 14.0805 -0.00012207 9.13793C-0.00012207 4.1954 4.01106 0 9.11099 0C14.612 0 19.4255 4.42529 19.4255 12.1839C19.4255 21.4368 14.3255 29.7701 6.99079 35L0.572903 29.8851Z" fill="#FFF5BB"/>
</svg>
